!!!COM:	Bach, Johann Sebastian
!!!CDT:	1685/02/21/-1750/07/28/
!!!OTL@@DE:	Mach's mit mir, Gott, nach deiner G&uuml;t
!!!SCT:	BWV 245/22
!!!PC#:	310
!!!AGN:	chorale
**kern	**kern	**kern	**kern
*ICvox	*ICvox	*ICvox	*ICvox
*Ibass	*Itenor	*Ialto	*Isoprn
*I"Bass	*I"Tenor	*I"Alto	*I"Soprano
*>[A,A,B]	*>[A,A,B]	*>[A,A,B]	*>[A,A,B]
*>norep[A,B]	*>norep[A,B]	*>norep[A,B]	*>norep[A,B]
*>A	*>A	*>A	*>A
*	*oclefC4	*oclefC3	*oclefC1
*clefF4	*clefGv2	*clefG2	*clefG2
*k[f#c#g#d#]	*k[f#c#g#d#]	*k[f#c#g#d#]	*k[f#c#g#d#]
*E:	*E:	*E:	*E:
*M4/4	*M4/4	*M4/4	*M4/4
*met(c)	*met(c)	*met(c)	*met(c)
*MM100	*MM100	*MM100	*MM100
4EE	8G#L	4B	8eL
.	8AJ	.	8f#J
=1	=1	=1	=1
4E	4B	4e	4g#
4C#	4c#	4e	4a
4GG#	4d	4e	4b
4C#	8c#L	4e	4b
.	8BJ	.	.
=2	=2	=2	=2
4FF#	4c#	8eL	4a
.	.	8d#J	.
8GG#L	4B	4e	4g#
8AAJ	.	.	.
4BB;	4B;	4d#;	4f#;
4B	4d#	4f#	4b
=3	=3	=3	=3
4A#	4c#	4f#	4cc#
8G#L	4f#	4a#	4dd#
8F#J	.	.	.
8G#L	8BL	8bL	4ee
8A#J	8c#J	8f#J	.
4B	8d#L	8f#L	4dd#
.	8eJ	8g#J	.
=4	=4	=4	=4
4E	8eL	4g#	2cc#
.	8d#J	.	.
4F#	4c#	4a#	.
4BB;	4d#;	4f#;	4b;
=:|!	=:|!	=:|!	=:|!
*>B	*>B	*>B	*>B
8EL	4e	4g#	4b
8D#J	.	.	.
=5	=5	=5	=5
4C#	4g#	4cc#	4ee
4GG#	4g#	[4b	8dd#L
.	.	.	8cc#J
4AA	8g#L	8bL]	4cc#
.	8f#J	[8anXJ	.
4BB	8f#L	8aL]	4b
.	8d#J	[8g#J	.
=6	=6	=6	=6
8C#L	8eL	8g#L]	4a
8D#J	8BJ	8f#J	.
4E	4B	4e	8g#L
.	.	.	8f#J
4BB;	4B;	4d#;	4f#;
4BB	8G#L	4d	4b
.	8F#J	.	.
=7	=7	=7	=7
4C	4E	4c	4a
4C#	4E#	4B	4g#
4D	4F#	8AL	8f#L
.	.	8BJ	8g#J
4D#	4F#	4cnX	4a
=8	=8	=8	=8
4E	8.G#L	8BL	4g#
.	.	[8enXJ	.
.	16AJk	.	.
4BB	8BL	8eL]	4f#
.	8F#J	8d#J	.
4EE;	4G#;	4B;	4e;
==	==	==	==
*-	*-	*-	*-
!!!YOR1: 371 vierstimmige Choralges&auml;nge von Johann Sebastian Bach, 
!!!YOR2: 4th ed. by Alfred D&ouml;rffel (Leipzig: Breitkopf und H&auml;rtel, 
!!!YOR2: c.1875). 178 pp. Plate "V.A.10".  reprint: J.S. Bach, 371 Four-Part 
!!!YOR4: Chorales (New York: Associated Music Publishers, Inc., c.1940).
!!!SMS: B&H, 4th ed, Alfred D&ouml;rffel, c.1875, plate V.A.10
!!!EED:  Craig Stuart Sapp
!!!EEV:  2009/05/22
